X: 136011
Q: "Irish Jig."
M: 6/8
L: 1/8
K: D
uA |\
|: ue |\
fdf fdf | ece ece | fdf fdf | geg geg |\
fdf fdf | ece ecA | Bcd ecA | d3  d2 :|


